X: 28376
T: Muineira De Ourense
R: slide
M: 12/8
K: Dmajor
"D"A3|AGF "A"EFG|"D"A3"G"B3|BAA "D"dAA|"G"G2F "D"DFE|
"D"DFF "D" FED|"G"B2G "D"DFE|D3"A"EDE|"D"F2D "D"DFE|
"D"DFF "D"FED|"G"B2G "D"DFE|D3"A"EDE|1 "D"D3 "G"A3:|2 "D"D3 "G"B3||
K:Gmaj
"D"dBd "G"dcB|"D"c2A "D"A3|cAc "D"cBA|"G"B2G "G"B3|
"Em"BEF "G"GAB|"D"d2c "C"cdc|"G"BcB "D"ABA|1 "G"G3 B3:|2 "G"G3 "D"A3||

